X:53
T:The three Maries
T:not pretty, & vulgar
Z:Jack Campin - http://www.campin.me.uk
S:Blaikie MS (NLS MS.1578) p18, Blaikie #51
M:6/8
L:1/8
V:1 midi program 1 74
V:2 midi program 1 46 bass middle = d transpose -24
Q:3/8=72
K:G
[V:1]    G2G D2D|E2E D2D|c2e d2B|A3 G2E|G2G D2D|E2E D2 B|c2e d2B|A3 G2||
[V:2]    G3  g3 |G3  g3 |c'3 b2g|d3 g2z|G3  g3 |c'3 b2 g|e2c B2G|d3 g2||
%
[V:1]  B|c2B c2d|e3  ddB|A2A d2c|B3 A2G|G2G D2D|E2E D2 B|c2e d2B|A3 G2|]
[V:2] =f|e2d c2B|c3  G3 |d3  f3 |g3 d2z|G3  g3 |G3  g2=f|e2c B2G|d3 g2|]
W:Transcription (c) Jack Campin 2009, no mirroring or republication without permission

